src/pages/Home/images/tiktok.svg

<svg width="32" height="32" viewBox="0 0 32 32" fill="none" xmlns="http://www.w3.org/2000/svg">
<circle cx="16" cy="16" r="16" fill="#BD1B7F"/>
<path d="M23.7441 14.7778V11.7854C22.3427 11.7854 21.2733 11.4114 20.5831 10.6844C19.8748 9.85464 19.478 8.80389 19.461 7.71307V7.49708L16.6319 7.42859V19.5824C16.5349 20.1127 16.2775 20.6004 15.8945 20.9798C15.5114 21.3591 15.0212 21.6118 14.4901 21.7038C13.9589 21.7957 13.4123 21.7224 12.924 21.4939C12.4358 21.2653 12.0294 20.8924 11.7598 20.4256C11.4902 19.9588 11.3703 19.4205 11.4164 18.8834C11.4624 18.3462 11.6721 17.8362 12.0172 17.422C12.3623 17.0079 12.8261 16.7096 13.3461 16.5674C13.8661 16.4252 14.4172 16.446 14.925 16.6269V13.7294C14.629 13.6809 14.3295 13.6562 14.0294 13.6556C12.95 13.6556 11.8947 13.9757 10.9972 14.5755C10.0996 15.1752 9.40009 16.0276 8.98699 17.0249C8.5739 18.0222 8.46581 19.1196 8.67641 20.1783C8.887 21.2371 9.40682 22.2096 10.1701 22.9729C10.9334 23.7362 11.9059 24.256 12.9646 24.4666C14.0234 24.6772 15.1208 24.5691 16.1181 24.156C17.1154 23.7429 17.9678 23.0433 18.5675 22.1458C19.1672 21.2482 19.4873 20.193 19.4873 19.1135C19.4867 18.8899 19.4727 18.6665 19.4452 18.4445V13.624C20.7316 14.4274 22.2283 14.8291 23.7441 14.7778Z" fill="white"/>
</svg>

<svg width="32" height="32" fill="none" xmlns="http://www.w3.org/2000/svg"><circle cx="16" cy="16" r="16" fill="#BD1B7F"/><path d="M23.744 14.778v-2.993c-1.401 0-2.47-.374-3.16-1.1a4.69 4.69 0 0 1-1.123-2.972v-.216l-2.83-.068v12.153a2.634 2.634 0 1 1-1.706-2.955v-2.898a5.457 5.457 0 1 0 4.52 4.715v-4.82a7.628 7.628 0 0 0 4.3 1.154Z" fill="#fff"/></svg>
